icons/svg/seamark_small/restricted_area_kite_surfing.svg

<?xml version="1.0" encoding="UTF-8" standalone="no"?>
<!-- Created with Inkscape (http://www.inkscape.org/) -->

<svg
   xmlns:dc="http://purl.org/dc/elements/1.1/"
   xmlns:cc="http://creativecommons.org/ns#"
   xmlns:rdf="http://www.w3.org/1999/02/22-rdf-syntax-ns#"
   xmlns:svg="http://www.w3.org/2000/svg"
   xmlns="http://www.w3.org/2000/svg"
   xmlns:sodipodi="http://sodipodi.sourceforge.net/DTD/sodipodi-0.dtd"
   xmlns:inkscape="http://www.inkscape.org/namespaces/inkscape"
   version="1.0"
   width="580"
   height="580"
   id="svg2"
   sodipodi:version="0.32"
   inkscape:version="0.48.4 r9939"
   sodipodi:docname="restricted_area_kite_surfing.svg"
   inkscape:output_extension="org.inkscape.output.svg.inkscape">
  <metadata
     id="metadata2975">
    <rdf:RDF>
      <cc:Work
         rdf:about="">
        <dc:format>image/svg+xml</dc:format>
        <dc:type
           rdf:resource="http://purl.org/dc/dcmitype/StillImage" />
        <cc:license
           rdf:resource="http://web.resource.org/cc/PublicDomain" />
        <dc:language>en</dc:language>
        <dc:title />
      </cc:Work>
    </rdf:RDF>
  </metadata>
  <sodipodi:namedview
     inkscape:window-height="1004"
     inkscape:window-width="1920"
     inkscape:pageshadow="2"
     inkscape:pageopacity="0.0"
     guidetolerance="10.0"
     gridtolerance="10.0"
     objecttolerance="10.0"
     borderopacity="1.0"
     bordercolor="#666666"
     pagecolor="#ffffff"
     id="base"
     inkscape:zoom="0.92167712"
     inkscape:cx="258.14431"
     inkscape:cy="283.98722"
     inkscape:window-x="1680"
     inkscape:window-y="0"
     inkscape:current-layer="svg2"
     showgrid="false"
     inkscape:window-maximized="1" />
  <defs
     id="defs4">
    <inkscape:perspective
       sodipodi:type="inkscape:persp3d"
       inkscape:vp_x="0 : 290 : 1"
       inkscape:vp_y="0 : 1000 : 0"
       inkscape:vp_z="580 : 290 : 1"
       inkscape:persp3d-origin="290 : 193.33333 : 1"
       id="perspective10" />
  </defs>
  <path
     sodipodi:type="inkscape:offset"
     inkscape:radius="46.27676"
     inkscape:original="M 212.46875 47.6875 A 18.647367 18.647367 0 0 0 209.15625 48.0625 A 18.647367 18.647367 0 0 0 196.34375 74.28125 L 229.5625 152.375 A 18.647367 18.647367 0 0 0 241.21875 162.875 L 298.09375 180.5625 L 222.5625 253.1875 L 222.84375 253.375 A 23.309208 23.309208 0 0 0 216.15625 270.65625 L 219.0625 348.71875 L 135.75 390.6875 A 23.452093 23.452093 0 0 0 156.71875 432.625 L 253.4375 384.28125 A 23.309208 23.309208 0 0 0 266.28125 362.125 L 264.53125 316.6875 L 326.875 361.5625 L 308.21875 435.5625 A 23.309208 23.309208 0 0 0 323.375 466.09375 L 70.6875 426.8125 A 18.647367 18.647367 0 0 0 66.96875 426.53125 A 18.647367 18.647367 0 0 0 64.9375 463.65625 L 93.53125 468.09375 L 62.21875 514.21875 C 62.21875 514.21875 130.50053 507.22013 156.78125 477.9375 L 508.71875 532.625 A 18.647367 18.647367 0 1 0 514.4375 495.78125 L 329.625 467.0625 A 23.309208 23.309208 0 0 0 353.09375 447.21875 L 375.8125 357.46875 A 23.309208 23.309208 0 0 0 366.5 333 L 311.78125 293.4375 L 384.75 226.84375 L 481.28125 305.03125 A 18.654606 18.654606 0 0 0 504.59375 275.90625 L 366.5 164.03125 A 18.647367 18.647367 0 0 0 360.65625 160.53125 L 260.4375 129.65625 L 230.15625 59.15625 A 18.647367 18.647367 0 0 0 212.46875 47.6875 z M 390.375 66.71875 C 364.63093 66.71875 343.75 87.599685 343.75 113.34375 C 343.75 139.08782 364.63093 159.9375 390.375 159.9375 C 416.11907 159.9375 437 139.08782 437 113.34375 C 437 87.599685 416.11907 66.71875 390.375 66.71875 z "
     style="font-size:medium;font-style:normal;font-variant:normal;font-weight:normal;font-stretch:normal;text-indent:0;text-align:start;text-decoration:none;line-height:normal;letter-spacing:normal;word-spacing:normal;text-transform:none;direction:ltr;block-progression:tb;writing-mode:lr-tb;text-anchor:start;baseline-shift:baseline;opacity:0.42608696;color:#000000;fill:#acd8f3;fill-opacity:1;fill-rule:nonzero;stroke:#a35151;stroke-width:0;stroke-linecap:round;stroke-linejoin:miter;stroke-miterlimit:4;stroke-opacity:1;stroke-dasharray:none;stroke-dashoffset:0;marker:none;visibility:visible;display:inline;overflow:visible;enable-background:accumulate;font-family:Sans;-inkscape-font-specification:Sans"
     id="path3075"
     d="m 211.28125,1.4375 0,0.46875 c -0.43828,-0.2537102 -0.50545,-0.4001846 -0.0625,-0.4375 1.10067,0.016507 -12.9324,1.5757316 -11.34375,1.25 A 46.281388,46.281388 0 0 0 199.15625,2.875 c 3.61956,-0.8004019 -22.75551,11.795411 -25.96875,12.59375 -1.30637,2.543748 -15.85706,20.559561 -18.09375,22.40625 -0.0921,2.934785 -5.36388,25.495061 -6.5625,28.0625 1.06543,2.449809 5.00074,20.017129 5.96875,26.15625 l -0.75,0.3125 33.21875,78.09375 a 46.281388,46.281388 0 0 0 0.0312,0.0312 c -1.40872,-3.30085 15.13543,19.75831 16.40625,22.59375 1.06626,0.34775 5.2264,2.56355 9.65625,5.03125 L 190.5,219.84375 A 46.281388,46.281388 0 0 0 178.40625,239.375 c -2.35745,3.51393 -4.20503,6.18359 -3.84375,5.25 1.11932,-2.89244 -4.40536,30.19694 -4.625,27.75 l -0.0312,0 0,0.125 1.8125,48.25 -56.78125,28.59375 a 46.281388,46.281388 0 0 0 -0.96875,0.53125 c 2.59109,-1.383 -22.629678,19.13183 -20.75,16.875 1.227918,-1.47429 -3.926676,7.98793 -8.15625,15.46875 l -6.28125,-0.96875 -1,-0.15625 0,0.0937 c -0.737673,0.0879 -13.438127,-0.85385 -11.90625,-0.90625 0.008,-2.7e-4 -0.07134,2.2e-4 -0.0625,0 l 0,0.0312 c 3.010521,-0.002 -26.650215,6.28859 -23.5,4.96875 3.169508,-1.32792 -22.561101,15.67318 -20.09375,13.28125 2.467351,-2.39193 -15.300642,22.81427 -13.875,19.6875 1.425642,-3.12677 -5.9377402,26.80631 -5.75,23.375 0.1877402,-3.43131 4.2322481,27.13865 3.15625,23.875 -1.0759981,-3.26365 13.84791,23.74059 11.65625,21.09375 -0.763135,-0.92163 1.918914,1.1307 5.21875,3.78125 a 46.281388,46.281388 0 0 0 44.3125,69.875 c 0,0 20.424924,-2.04529 44.59375,-8.46875 17.92462,-4.76391 39.21573,-10.6715 59.3125,-24.84375 l 329.71875,51.25 0.0312,0 1.03125,0.15625 L 501.6875,578 c 2.35423,-0.58707 27.80617,-1.13676 24.5625,-0.40625 -3.57981,0.80621 26.45537,-12.60068 23.46875,-10.46875 -2.98662,2.13193 19.48805,-21.90492 17.5625,-18.78125 -1.92555,3.12367 9.43782,-27.75105 8.875,-24.125 -0.56282,3.62605 -2.04432,-29.21664 -1.15625,-25.65625 0.88807,3.56039 -13.2311,-26.15571 -11.03125,-23.21875 2.19985,2.93696 -22.35449,-18.94717 -19.1875,-17.09375 2.87976,1.68532 -21.40492,-6.61834 -23.3125,-7.84375 l 0.0625,-0.34375 -1.03125,-0.15625 -115.78125,-18 15.96875,-63.09375 a 46.281388,46.281388 0 0 0 0.15625,-0.6875 c -0.96648,4.07883 -3.77125,-37.18757 -2.96875,-40.6875 -2.62504,-1.94668 -21.48235,-26.03313 -24.65625,-31.375 l 0.40625,-0.5625 -0.59375,-0.40625 -0.1875,0.25 c -0.12346,-0.30959 -0.12302,-0.46741 0.1875,-0.25 L 385,289.25 386.53125,287.84375 452.15625,341 a 46.281388,46.281388 0 0 0 0.6875,0.53125 c -2.82839,-2.20375 25.89079,12.27743 22.4375,11.3125 -3.45329,-0.96493 28.59233,1.55038 25.03125,1.96875 -3.56108,0.41837 27.07312,-9.45777 23.9375,-7.71875 -3.13562,1.73902 21.42812,-18.98677 19.1875,-16.1875 -2.24062,2.79927 12.6351,-25.75285 11.625,-22.3125 -1.0101,3.44035 1.90958,-28.56625 2.28125,-25 0.37167,3.56625 -9.10404,-27.18939 -7.40625,-24.03125 1.69779,3.15814 -18.73842,-21.68336 -15.96875,-19.40625 a 46.281388,46.281388 0 0 0 -0.25,-0.21875 l -76.84375,-62.25 c 16.25853,-16.7751 26.40625,-39.50056 26.40625,-64.34375 0,-50.767355 -42.13889,-92.90625 -92.90625,-92.90625 -43.90747,0 -81.30592,31.545604 -90.625,72.90625 L 294.53125,91.75 272.875,41.34375 c 0.23461,0.563011 0.0179,0.551392 -0.46875,0.1875 l 0.46875,-0.1875 -0.1875,-0.4375 L 272,41.1875 C 267.71009,37.451987 249.79178,15.940551 248,12.28125 243.91186,12.160355 215.70064,4.212236 211.40625,2 l 0,-0.5625 c 0.0177,-4.099e-4 -0.13892,2.16e-5 -0.125,0 z m -56.5,92.625 c 0.24962,0.767345 0.57526,0.07123 0,0 z m 148.4375,303.96875 c 0.13479,-0.0309 0.13956,0.0717 0,0.3125 -0.18437,0.31804 -0.26701,0.16277 -0.28125,-0.15625 0.0806,-0.0431 0.23282,-0.14514 0.28125,-0.15625 z" />
  <path
     style="font-size:medium;font-style:normal;font-variant:normal;font-weight:normal;font-stretch:normal;text-indent:0;text-align:start;text-decoration:none;line-height:normal;letter-spacing:normal;word-spacing:normal;text-transform:none;direction:ltr;block-progression:tb;writing-mode:lr-tb;text-anchor:start;baseline-shift:baseline;color:#000000;fill:#b01d1d;fill-opacity:1;stroke:none;stroke-width:37.29100418000000161;marker:none;visibility:visible;display:inline;overflow:visible;enable-background:accumulate;font-family:Sans;-inkscape-font-specification:Sans"
     d="M 212.78125 47.21875 A 18.647367 18.647367 0 0 0 209.46875 47.59375 A 18.647367 18.647367 0 0 0 196.65625 73.84375 L 229.875 151.90625 A 18.647367 18.647367 0 0 0 241.53125 162.40625 L 298.40625 180.09375 L 222.875 252.71875 L 223.1875 252.90625 A 23.309208 23.309208 0 0 0 216.46875 270.1875 L 219.375 348.28125 L 136.0625 390.21875 A 23.457752 23.457752 0 0 0 157.03125 432.1875 L 253.75 383.8125 A 23.309208 23.309208 0 0 0 266.5625 361.65625 L 264.84375 316.21875 L 327.1875 361.09375 L 308.53125 435.09375 A 23.309208 23.309208 0 0 0 323.6875 465.625 L 70.96875 426.34375 A 18.647367 18.647367 0 0 0 67.28125 426.09375 A 18.647367 18.647367 0 0 0 65.25 463.1875 L 93.8125 467.625 L 62.53125 513.75 C 62.53125 513.75 130.81303 506.75138 157.09375 477.46875 L 509.03125 532.15625 A 18.647367 18.647367 0 1 0 514.75 495.3125 L 329.9375 466.59375 A 23.309208 23.309208 0 0 0 353.40625 446.75 L 376.125 357 A 23.309208 23.309208 0 0 0 366.78125 332.53125 L 312.0625 292.96875 L 385.0625 226.375 L 481.59375 304.5625 A 18.654604 18.654604 0 1 0 504.875 275.4375 L 366.78125 163.5625 A 18.647367 18.647367 0 0 0 360.96875 160.0625 L 260.75 129.1875 L 230.4375 58.6875 A 18.647367 18.647367 0 0 0 212.78125 47.21875 z M 390.6875 66.25 C 364.94343 66.25 344.0625 87.130934 344.0625 112.875 C 344.0625 138.61907 364.94343 159.46875 390.6875 159.46875 C 416.43157 159.46875 437.3125 138.61907 437.3125 112.875 C 437.3125 87.130934 416.43157 66.25 390.6875 66.25 z "
     id="line3" />
</svg>

<svg width="580" height="580" viewBox="0 0 580 580" fill="none" xmlns="http://www.w3.org/2000/svg">
<path opacity="0.426087" d="M211.281 1.43749V1.90624C210.843 1.65253 210.776 1.50606 211.219 1.46874C212.319 1.48525 198.286 3.04448 199.875 2.71874C199.635 2.76892 199.395 2.82101 199.156 2.87499C202.776 2.07459 176.401 14.6704 173.188 15.4687C171.881 18.0125 157.331 36.0283 155.094 37.875C155.002 40.8098 149.73 63.3701 148.531 65.9375C149.597 68.3873 153.532 85.9546 154.5 92.0937L153.75 92.4062L186.969 170.5C186.979 170.51 186.99 170.521 187 170.531C185.591 167.23 202.135 190.29 203.406 193.125C204.473 193.473 208.633 195.689 213.063 198.156L190.5 219.844C184.891 225.234 180.732 231.952 178.406 239.375C176.049 242.889 174.201 245.559 174.563 244.625C175.682 241.733 170.157 274.822 169.938 272.375H169.906V272.5L171.719 320.75L114.938 349.344C114.613 349.517 114.29 349.694 113.969 349.875C116.56 348.492 91.3392 369.007 93.2189 366.75C94.4468 365.276 89.2922 374.738 85.0626 382.219L78.7814 381.25L77.7814 381.094V381.187C77.0437 381.275 64.3432 380.334 65.8751 380.281C65.8831 380.281 65.8038 380.281 65.8126 380.281V380.312C68.8231 380.31 39.1624 386.601 42.3126 385.281C45.4821 383.953 19.7515 400.954 22.2189 398.562C24.6862 396.17 6.91822 421.377 8.34386 418.25C9.76951 415.123 2.40612 445.056 2.59386 441.625C2.78161 438.194 6.82611 468.764 5.75011 465.5C4.67412 462.236 19.598 489.24 17.4064 486.594C16.6432 485.672 19.3253 487.724 22.6251 490.375C18.2051 497.735 15.9196 506.18 16.0243 514.765C16.1289 523.35 18.6195 531.737 23.2176 538.987C27.8157 546.238 34.3399 552.067 42.0609 555.822C49.7819 559.577 58.3952 561.11 66.9376 560.25C66.9376 560.25 87.3625 558.205 111.531 551.781C129.456 547.017 150.747 541.11 170.844 526.937L500.563 578.187H500.594L501.625 578.344L501.688 578C504.042 577.413 529.494 576.863 526.25 577.594C522.67 578.4 552.705 564.993 549.719 567.125C546.732 569.257 569.207 545.22 567.281 548.344C565.356 551.467 576.719 520.593 576.156 524.219C575.593 527.845 574.112 495.002 575 498.562C575.888 502.123 561.769 472.407 563.969 475.344C566.169 478.281 541.614 456.397 544.781 458.25C547.661 459.935 523.376 451.632 521.469 450.406L521.531 450.062L520.5 449.906L404.719 431.906L420.688 368.812C420.741 368.584 420.793 368.355 420.844 368.125C419.877 372.204 417.073 330.937 417.875 327.438C415.25 325.491 396.393 301.404 393.219 296.062L393.625 295.5L393.031 295.094L392.844 295.344C392.72 295.034 392.721 294.876 393.031 295.094L385 289.25L386.531 287.844L452.156 341C452.384 341.179 452.613 341.356 452.844 341.531C450.015 339.328 478.735 353.809 475.281 352.844C471.828 351.879 503.874 354.394 500.313 354.812C496.751 355.231 527.386 345.355 524.25 347.094C521.114 348.833 545.678 328.107 543.438 330.906C541.197 333.706 556.073 305.153 555.063 308.594C554.052 312.034 556.972 280.027 557.344 283.594C557.715 287.16 548.24 256.404 549.938 259.562C551.635 262.721 531.199 237.879 533.969 240.156C533.886 240.083 533.802 240.01 533.719 239.938L456.875 177.688C473.134 160.912 483.281 138.187 483.281 113.344C483.281 62.5764 441.142 20.4375 390.375 20.4375C346.468 20.4375 309.069 51.9831 299.75 93.3437L294.531 91.75L272.875 41.3437C273.11 41.9068 272.893 41.8951 272.406 41.5312L272.875 41.3437L272.688 40.9062L272 41.1875C267.71 37.452 249.792 15.9405 248 12.2812C243.912 12.1603 215.701 4.21223 211.406 1.99999V1.43749C211.424 1.43708 211.267 1.43752 211.281 1.43749ZM154.781 94.0625C155.031 94.8298 155.357 94.1337 154.781 94.0625V94.0625ZM303.219 398.031C303.354 398 303.358 398.103 303.219 398.344C303.034 398.662 302.952 398.507 302.938 398.188C303.018 398.144 303.17 398.042 303.219 398.031Z" fill="#ACD8F3"/>
<path d="M212.781 47.2188C211.668 47.2446 210.559 47.3701 209.469 47.5938C206.726 48.1981 204.155 49.4141 201.948 51.1511C199.742 52.888 197.956 55.101 196.724 57.6249C195.492 60.1487 194.846 62.9182 194.834 65.7266C194.823 68.535 195.445 71.3097 196.656 73.8438L229.875 151.906C230.938 154.398 232.532 156.628 234.545 158.442C236.558 160.255 238.942 161.608 241.531 162.406L298.406 180.094L222.875 252.719L223.187 252.906C220.945 255.174 219.191 257.878 218.036 260.85C216.88 263.823 216.347 267.001 216.469 270.188L219.375 348.281L136.062 390.219C130.498 393 126.266 397.878 124.298 403.779C122.33 409.68 122.786 416.121 125.566 421.686C128.346 427.251 133.223 431.483 139.124 433.453C145.025 435.422 151.466 434.967 157.031 432.188L253.75 383.812C257.814 381.772 261.193 378.587 263.469 374.65C265.746 370.713 266.821 366.197 266.562 361.656L264.844 316.219L327.187 361.094L308.531 435.094C307.407 438.087 306.911 441.279 307.073 444.472C307.235 447.664 308.052 450.79 309.474 453.653C310.896 456.517 312.891 459.057 315.336 461.117C317.781 463.176 320.624 464.711 323.687 465.625L70.9687 426.344C69.7508 426.139 68.5156 426.055 67.2812 426.094C62.623 426.25 58.1924 428.146 54.8621 431.407C51.5319 434.667 49.5435 439.057 49.2887 443.711C49.0338 448.365 50.531 452.945 53.4853 456.55C56.4395 460.155 60.6367 462.523 65.2499 463.188L93.8124 467.625L62.5312 513.75C62.5312 513.75 130.813 506.751 157.094 477.469L509.031 532.156C511.477 532.594 513.986 532.538 516.41 531.992C518.834 531.446 521.125 530.421 523.147 528.977C525.169 527.534 526.883 525.7 528.187 523.585C529.491 521.47 530.359 519.115 530.74 516.66C531.121 514.205 531.007 511.698 530.406 509.287C529.805 506.876 528.728 504.61 527.238 502.621C525.748 500.632 523.876 498.961 521.732 497.706C519.587 496.451 517.213 495.637 514.75 495.312L329.937 466.594C335.591 466.695 341.088 464.738 345.405 461.088C349.723 457.437 352.566 452.341 353.406 446.75L376.125 357C377.198 352.455 376.881 347.692 375.215 343.329C373.549 338.966 370.611 335.204 366.781 332.531L312.062 292.969L385.062 226.375L481.594 304.562C483.494 306.194 485.704 307.425 488.091 308.184C490.477 308.943 492.993 309.213 495.486 308.979C497.98 308.745 500.401 308.011 502.605 306.822C504.809 305.632 506.75 304.01 508.314 302.054C509.878 300.098 511.032 297.847 511.707 295.435C512.382 293.023 512.564 290.5 512.243 288.016C511.923 285.532 511.105 283.138 509.839 280.977C508.573 278.816 506.885 276.932 504.875 275.438L366.781 163.563C365.074 162.05 363.104 160.864 360.969 160.063L260.75 129.188L230.437 58.6875C228.992 55.2197 226.533 52.2694 223.383 50.2229C220.232 48.1765 216.537 47.1293 212.781 47.2188ZM390.687 66.25C364.943 66.25 344.062 87.1309 344.062 112.875C344.062 138.619 364.943 159.469 390.687 159.469C416.431 159.469 437.312 138.619 437.312 112.875C437.312 87.1309 416.431 66.25 390.687 66.25Z" fill="#B01D1D"/>
</svg>
